dist/svgs/unicons/line/desktop-alt.svg

<svg xmlns="http://www.w3.org/2000/svg" viewBox="0 0 24 24"><path d="M19 2H5a3 3 0 00-3 3v10a3 3 0 003 3h3v2H5a1 1 0 000 2h14a1 1 0 000-2h-3v-2h3a3 3 0 003-3V5a3 3 0 00-3-3zm-5 18h-4v-2h4zm6-5a1 1 0 01-1 1H5a1 1 0 01-1-1v-1h16zm0-3H4V5a1 1 0 011-1h14a1 1 0 011 1z"/></svg>

<svg xmlns="http://www.w3.org/2000/svg" viewBox="0 0 24 24"><path d="M19,2H5A3,3,0,0,0,2,5V15a3,3,0,0,0,3,3H8v2H5a1,1,0,0,0,0,2H19a1,1,0,0,0,0-2H16V18h3a3,3,0,0,0,3-3V5A3,3,0,0,0,19,2ZM14,20H10V18h4Zm6-5a1,1,0,0,1-1,1H5a1,1,0,0,1-1-1V14H20Zm0-3H4V5A1,1,0,0,1,5,4H19a1,1,0,0,1,1,1Z"/></svg>
